X: 39752
T: Thady You Gander
R: jig
M: 6/8
K: Dmajor
|:e|f2 d e2 d f2 d e2 d|B2 e ede B2 e ede|
f2 d e2 d f2 d e2 d|A2 d dcd A2 d d2:|
|:g|fga efg fga efg|B2 e ede B2 e e2 g|
fga efg fga efg|A2 d dcd A2 d d2:|

